X: 2
T: For The Sake Of Old Decency
R: reel
M: 4/4
L: 1/8
K: Gmaj
d2 BG AE ~E2 | AcBG A2 GB | d2 BG AE ~E2 |1 DGB,D EGGB :|G2 GB d2 Bd | ea ~a2 ea a2 | G2 GB d2 Bd | ea ~a2 bgag |G2 GB d2 Bd | ea ~a2 eaag | bage g2 ed | egag bgag ||


Tune 2777	Setting 16002

